assets/images/flag/turkey.svg

<svg xmlns="http://www.w3.org/2000/svg" width="512" height="512" fill="none"><g clip-path="url(#a)"><path fill="#D80027" d="M256 512c141.385 0 256-114.615 256-256S397.385 0 256 0 0 114.615 0 256s114.615 256 256 256"/><path fill="#F0F0F0" d="m245.518 209.186 21.005 28.945 34.017-11.03-21.038 28.92 21.002 28.944-34.005-11.072-21.037 28.92.022-35.761-34.006-11.072 34.018-11.03z"/><path fill="#F0F0F0" d="M188.194 328.348c-39.956 0-72.348-32.392-72.348-72.348s32.392-72.348 72.348-72.348c12.458 0 24.18 3.151 34.414 8.696-16.055-15.702-38.012-25.392-62.24-25.392-49.178 0-89.043 39.866-89.043 89.043s39.866 89.043 89.043 89.043c24.23 0 46.186-9.691 62.24-25.392-10.234 5.547-21.956 8.698-34.414 8.698"/></g><defs><clipPath id="a"><path fill="#fff" d="M0 0h512v512H0z"/></clipPath></defs></svg>

<svg width="512" height="512" viewBox="0 0 512 512" fill="none" xmlns="http://www.w3.org/2000/svg">
<g clip-path="url(#clip0_0_1910)">
<path d="M256 512C397.385 512 512 397.385 512 256C512 114.615 397.385 0 256 0C114.615 0 0 114.615 0 256C0 397.385 114.615 512 256 512Z" fill="#D80027"/>
<path d="M245.518 209.186L266.523 238.131L300.54 227.101L279.502 256.021L300.504 284.965L266.499 273.893L245.462 302.813L245.484 267.052L211.478 255.98L245.496 244.95L245.518 209.186Z" fill="#F0F0F0"/>
<path d="M188.194 328.348C148.238 328.348 115.846 295.956 115.846 256C115.846 216.044 148.238 183.652 188.194 183.652C200.652 183.652 212.374 186.803 222.608 192.348C206.553 176.646 184.596 166.956 160.368 166.956C111.19 166.956 71.325 206.822 71.325 255.999C71.325 305.176 111.191 345.042 160.368 345.042C184.598 345.042 206.554 335.351 222.608 319.65C212.374 325.197 200.652 328.348 188.194 328.348Z" fill="#F0F0F0"/>
</g>
<defs>
<clipPath id="clip0_0_1910">
<rect width="512" height="512" fill="white"/>
</clipPath>
</defs>
</svg>
